src/24x24/places/folder-gruvbox-mix-blue-private.svg

<?xml version="1.0" encoding="UTF-8"?>
<svg width="24" height="24" version="1" xmlns="http://www.w3.org/2000/svg">
 <rect x="2" y="9.5" width="20" height="12" rx="1" ry="1" opacity=".2"/>
 <path d="m2 17c0 0.554 0.446 1 1 1h18c0.554 0 1-0.446 1-1v-11c0-0.554-0.446-1-1-1h-9c-1.5 0-2-2-3.5-2h-5.5c-0.554 0-1 0.446-1 1" fill="#266b79"/>
 <rect x="2" y="8.5" width="20" height="12" rx="1" ry="1" opacity=".2"/>
 <rect x="4" y="7" width="16" height="8" rx="1" ry="1" fill="#dadec0"/>
 <rect x="2" y="9" width="20" height="12" rx="1" ry="1" fill="#80aa9e"/>
 <path d="m3 3c-0.554 0-1 0.446-1 1v0.5c0-0.554 0.446-1 1-1h5.5c1.5 0 2 2 3.5 2h9c0.554 0 1 0.446 1 1v-0.5c0-0.554-0.446-1-1-1h-9c-1.5 0-2-2-3.5-2z" fill="#dadec0" opacity=".1"/>
 <path d="m10 12c-1.6569 0-3 1.343-3 3s1.3431 3 3 3c1.27 0 2.401-0.803 2.824-2h2.176v1h2v-1h1v-2h-5.176c-0.423-1.197-1.554-2-2.824-2zm0 2c0.552 0 1 0.448 1 1s-0.448 1-1 1c-0.5523 0-1-0.448-1-1s0.4477-1 1-1z" fill="#374141"/>
</svg>

<svg xmlns="http://www.w3.org/2000/svg" width="24" height="24" version="1">
 <rect style="opacity:0.2" width="20" height="12" x="2" y="9.5" rx="1" ry="1"/>
 <path style="fill:#266b79" d="M 2,17 C 2,17.554 2.446,18 3,18 H 21 C 21.554,18 22,17.554 22,17 V 6 C 22,5.446 21.554,5 21,5 H 12 C 10.5,5 10,3 8.5,3 H 3 C 2.446,3 2,3.446 2,4"/>
 <rect style="opacity:0.2" width="20" height="12" x="2" y="8.5" rx="1" ry="1"/>
 <rect style="fill:#dadec0" width="16" height="8" x="4" y="7" rx="1" ry="1"/>
 <rect style="fill:#80aa9e" width="20" height="12" x="2" y="9" rx="1" ry="1"/>
 <path style="opacity:0.1;fill:#dadec0" d="M 3,3 C 2.446,3 2,3.446 2,4 V 4.5 C 2,3.946 2.446,3.5 3,3.5 H 8.5 C 10,3.5 10.5,5.5 12,5.5 H 21 C 21.554,5.5 22,5.946 22,6.5 V 6 C 22,5.446 21.554,5 21,5 H 12 C 10.5,5 10,3 8.5,3 Z"/>
 <path style="fill:#374141" d="M 10,12 C 8.3431,12 7,13.343 7,15 7,16.657 8.3431,18 10,18 11.27,18 12.401,17.197 12.824,16 H 15 V 17 H 17 V 16 H 18 V 14 H 12.824 C 12.401,12.803 11.27,12 10,12 Z M 10,14 C 10.552,14 11,14.448 11,15 11,15.552 10.552,16 10,16 9.4477,16 9,15.552 9,15 9,14.448 9.4477,14 10,14 Z"/>
</svg>
